svg/business/currency_rupee_2_line.svg

<?xml version="1.0" encoding="UTF-8"?>
<svg width="24px" height="24px" viewBox="0 0 24 24" version="1.1" xmlns="http://www.w3.org/2000/svg" xmlns:xlink="http://www.w3.org/1999/xlink">
    <title>currency_rupee_2_line</title>
    <g id="页面-1" stroke="none" stroke-width="1" fill="none" fill-rule="evenodd">
        <g id="Business" transform="translate(-480.000000, -288.000000)" fill-rule="nonzero">
            <g id="currency_rupee_2_line" transform="translate(480.000000, 288.000000)">
                <path d="M24,0 L24,24 L0,24 L0,0 L24,0 Z M12.5934901,23.257841 L12.5819402,23.2595131 L12.5108777,23.2950439 L12.4918791,23.2987469 L12.4918791,23.2987469 L12.4767152,23.2950439 L12.4056548,23.2595131 C12.3958229,23.2563662 12.3870493,23.2590235 12.3821421,23.2649074 L12.3780323,23.275831 L12.360941,23.7031097 L12.3658947,23.7234994 L12.3769048,23.7357139 L12.4804777,23.8096931 L12.4953491,23.8136134 L12.4953491,23.8136134 L12.5071152,23.8096931 L12.6106902,23.7357139 L12.6232938,23.7196733 L12.6232938,23.7196733 L12.6266527,23.7031097 L12.609561,23.275831 C12.6075724,23.2657013 12.6010112,23.2592993 12.5934901,23.257841 L12.5934901,23.257841 Z M12.8583906,23.1452862 L12.8445485,23.1473072 L12.6598443,23.2396597 L12.6498822,23.2499052 L12.6498822,23.2499052 L12.6471943,23.2611114 L12.6650943,23.6906389 L12.6699349,23.7034178 L12.6699349,23.7034178 L12.678386,23.7104931 L12.8793402,23.8032389 C12.8914285,23.8068999 12.9022333,23.8029875 12.9078286,23.7952264 L12.9118235,23.7811639 L12.8776777,23.1665331 C12.8752882,23.1545897 12.8674102,23.1470016 12.8583906,23.1452862 L12.8583906,23.1452862 Z M12.1430473,23.1473072 C12.1332178,23.1423925 12.1221763,23.1452606 12.1156365,23.1525954 L12.1099173,23.1665331 L12.0757714,23.7811639 C12.0751323,23.7926639 12.0828099,23.8018602 12.0926481,23.8045676 L12.108256,23.8032389 L12.3092106,23.7104931 L12.3186497,23.7024347 L12.3186497,23.7024347 L12.3225043,23.6906389 L12.340401,23.2611114 L12.337245,23.2485176 L12.337245,23.2485176 L12.3277531,23.2396597 L12.1430473,23.1473072 Z" id="MingCute" fill-rule="nonzero"></path>
                <path d="M7.00002,6 C6.44773,6 6.00000975,5.55228 6.00000975,5 C6.00000975,4.44772 6.44773,4 7.00002,4 L18.0000097,4 C18.5523,4 19.0000097,4.44772 19.0000097,5 C19.0000097,5.55228 18.5523,6 18.0000097,6 L13.4722,6 C14.2117,6.82616 14.7255,7.85843 14.9171,9 L18.0000097,9 C18.5523,9 19.0000097,9.44772 19.0000097,10 C19.0000097,10.5523 18.5523,11 18.0000097,11 L14.9171,11 C14.4957,13.5113 12.5144,15.4937 10.0035,15.9164 L14.5813,19.1863 C15.0307,19.5073 15.1348,20.1318 14.8137,20.5812 C14.4927,21.0307 13.8682,21.1347 13.4188,20.8137 L6.43174,15.823 C6.16512,15.6385 6.00545,15.3458 6.00015,15.0164 C5.99593,14.7712 6.08717,14.5271 6.24276,14.3469 C6.43682,14.1213 6.7128,13.9963 7.01341,14 L9.00002,14 C10.8639,14 12.43,12.7252 12.874,11 L7.00002,11 C6.44773,11 6.00000975,10.5523 6.00000975,10 C6.00000975,9.44772 6.44773,9 7.00002,9 L12.874,9 C12.43,7.27477 10.8639,6 9.00002,6 L7.00002,6 Z" id="路径" fill="#09244B"></path>
            </g>
        </g>
    </g>
</svg>

<svg xmlns="http://www.w3.org/2000/svg" width="24" height="24"><g fill="none" fill-rule="nonzero"><path d="M24 0v24H0V0zM12.593 23.258l-.011.002-.071.035-.02.004-.014-.004-.071-.035c-.01-.004-.019-.001-.024.005l-.004.01-.017.428.005.02.01.013.104.074.015.004.012-.004.104-.074.012-.016.004-.017-.017-.427c-.002-.01-.009-.017-.017-.018m.265-.113-.013.002-.185.093-.01.01-.003.011.018.43.005.012.008.007.201.093c.012.004.023 0 .029-.008l.004-.014-.034-.614c-.003-.012-.01-.02-.02-.022m-.715.002a.023.023 0 0 0-.027.006l-.006.014-.034.614c0 .012.007.02.017.024l.015-.002.201-.093.01-.008.004-.011.017-.43-.003-.012-.01-.01z"/><path fill="#09244B" d="M7 6a1 1 0 1 1 0-2h11a1 1 0 1 1 0 2h-4.528a5.98 5.98 0 0 1 1.445 3H18a1 1 0 1 1 0 2h-3.083a6.005 6.005 0 0 1-4.913 4.916l4.577 3.27a1 1 0 1 1-1.162 1.628l-6.987-4.991A.99.99 0 0 1 6 15.016c-.004-.245.087-.489.243-.67a.99.99 0 0 1 .77-.346H9a4.002 4.002 0 0 0 3.874-3H7a1 1 0 1 1 0-2h5.874A4.002 4.002 0 0 0 9 6z"/></g></svg>
